assets/img/braze_icons/currency-rupee.svg

<svg fill="none" height="24" viewBox="0 0 24 24" width="24" xmlns="http://www.w3.org/2000/svg"><path d="m6 2c-.55228 0-1 .44772-1 1s.44772 1 1 1h3c1.3954 0 2.3685.51331 3.0028 1.22688.4375.49221.7377 1.10753.8873 1.77312h-6.8901c-.55228 0-1 .44772-1 1s.44772 1 1 1h6.8901c-.1496.66559-.4498 1.2809-.8873 1.7731-.6343.7136-1.6074 1.2269-3.0028 1.2269h-3c-.14204 0-.27716.0296-.39952.083-.11433.0497-.22108.1218-.31354.2159-.09144.093-.16483.2038-.21449.3267-.04672.1156-.07245.242-.07245.3744 0 .141.02916.2751.08179.3967.05134.119.12676.2299.22604.325l.00871.0083 8.49806 7.9982c.4022.3785 1.0351.3593 1.4136-.0428.3785-.4022.3593-1.0351-.0428-1.4136l-6.66382-6.2718h.47842c1.9381 0 3.4651-.7367 4.4976-1.8981.7847-.8828 1.2536-1.9759 1.4265-3.1019h3.0759c.5523 0 1-.44772 1-1s-.4477-1-1-1h-3.0759c-.1663-1.08306-.6065-2.13572-1.3381-3h4.414c.5523 0 1-.44772 1-1s-.4477-1-1-1z" fill="#801ed7"/></svg>

<svg width="24" height="24" viewBox="0 0 24 24" fill="none" xmlns="http://www.w3.org/2000/svg">
<path d="M6 2C5.44772 2 5 2.44772 5 3C5 3.55228 5.44772 4 6 4H9C10.3954 4 11.3685 4.51331 12.0028 5.22688C12.4403 5.71909 12.7405 6.33441 12.8901 7H6C5.44772 7 5 7.44772 5 8C5 8.55228 5.44772 9 6 9H12.8901C12.7405 9.66559 12.4403 10.2809 12.0028 10.7731C11.3685 11.4867 10.3954 12 9 12H6C5.85796 12 5.72284 12.0296 5.60048 12.083C5.48615 12.1327 5.3794 12.2048 5.28694 12.2989C5.1955 12.3919 5.12211 12.5027 5.07245 12.6256C5.02573 12.7412 5 12.8676 5 13C5 13.141 5.02916 13.2751 5.08179 13.3967C5.13313 13.5157 5.20855 13.6266 5.30783 13.7217L5.31654 13.73L13.8146 21.7282C14.2168 22.1067 14.8497 22.0875 15.2282 21.6854C15.6067 21.2832 15.5875 20.6503 15.1854 20.2718L8.52158 14H9C10.9381 14 12.4651 13.2633 13.4976 12.1019C14.2823 11.2191 14.7512 10.126 14.9241 9H18C18.5523 9 19 8.55228 19 8C19 7.44772 18.5523 7 18 7H14.9241C14.7578 5.91694 14.3176 4.86428 13.586 4H18C18.5523 4 19 3.55228 19 3C19 2.44772 18.5523 2 18 2H6Z" fill="#801ED7"/>
</svg>
